X:1
T:James Gibb editions
T:O salutaris hostia - Terrabugio
T:#
%%score [ 1 2 3 ]
L:1/8
Q:1/4=69
M:4/4
K:Ab
V:1 treble nm="Alto" snm="A"
V:2 treble-8 nm="Tenor" snm="T"
V:3 bass nm="Bass" snm="B"
V:1
"^O salutaris hostia, op.81/4""^Giuseppe Terrabugio\n (1842-1933)""^adagio"!p! A,2 C4 B,2 | C6 D2 | %2
w: O sa- lu-|ta- ris|
 (E2 C2 B,2) B,2 | C4"^cresc." E4 | F4 F4 |[M:4/4] (F4 G4 |"^," A4 BA) (GF) | (EF G2 F2) F2 | %8
w: ho\- * * sti-|a, quae|coe- li|pan\- *|* * * dis *|o\- * * * sti-|
"^," E2!mf! C4 C2 | B,4 C2 C2 | (C2 =D)=E"^," F4 | G6 G2 | F4 G2 G2 | E2 (FG)"^," A2!ff! A2 | %14
w: um: bel- la|pre- munt ho-|sti\- * li- a,|bel- la|pre- munt ho-|sti- li\- * a, da-|
 A4 F4 | (G4 E4) |!>(! (F2 ED) (C4 | B,2)!>)! B,2 !fermata!A,4 ||!p!!<(! (A,2 D2) F4-!<)! | %19
w: ro- bur,|fer *|au\- * * xi\-|* li- um.|A\- * men,|
 F2!>(! (A4 G2)!>)! | !fermata!A4 |] %21
w: * A\- *|men.|
V:2
!p! A2 A4 B2 | A4 (G2 F2) | (EF A3 G/F/) G2 | A4 z4 | z4"^cresc." =A4- | %5
w: O sa- lu-|ta- ris *|ho\- * * * * sti-|a,|quae|
[M:4/4][K:treble-8] A2 B4 (cd) | (dc/B/ cf e2) d2 | (c2 e4) =d2 |"^," e2!mf! A4 A2 | A4 G2 G2 | %10
w: * coe- li *|pan\- * * * * * dis|o\- * sti-|um: bel- la|pre- munt ho-|
 A3 B"^," c4 | e6 e2 | e4 =d2 d2 | e2 e2"^," e2!ff! _d2 | c4 d4 | (d2 c)B BA A2- | %16
w: sti- li- a,|bel- la|pre- munt ho-|sti- li- a, da-|ro- bur,|fer * au- xi- li- um,|
 A2!>(! A4 A2!>)! | A2 G2 !fermata!A4 ||!p!!<(! (A2 B2) A4-!<)! | A2!>(! (d2 B4)!>)! | %20
w: * fer au-|xi- li- um.|A\- * men,|* A\- *|
 !fermata!c4 |] %21
w: men.|
V:3
!p! A,2 A,4 G,2 | F,4 (E,2 D,2) | (C,3 D, E,2) E,2 | [A,,A,]4 z4 | z4"^cresc." F,4 | %5
w: O sa- lu-|ta- ris *|ho\- * * sti-|a,|quae|
[M:4/4] D,4 E,4 | (F,4 G,A,) B,2 | (B,A,G,A, B,2) B,,2 |"^," E,2!mf! F,4 (F,E,) | =D,4 =E,2 E,2 | %10
w: coe- li|pan\- * * dis|o\- * * * * sti-|um: bel- la *|pre- munt ho-|
 F,3 G,"^," A,4 | C6 (CB,) | =A,4 =B,2 B,2 | C2 C2"^," F,2!ff! F,2 | F,4 B,4 | (E,4 C,4) | %16
w: sti- li- a,|bel- la *|pre- munt ho-|sti- li- a, da-|ro- bur,|fer *|
!>(! (D,2 E,F,) E,4-!>)! | E,2 E,2 !fermata!A,,4 ||!p!!<(! (A,2 _G,2) D,4-!<)! | %19
w: au\- * * xi\-|* li- um.|A\- * men,|
 D,2!>(! (F,2 E,4)!>)! | !fermata![A,,A,]4 |] %21
w: * A\- *|men.|

